X: 17010
T: Health To The Ladies
R: jig
M: 6/8
K: Amajor
|:a/f/|ecA BAF|AFE EFA|B/c/dc B^AB|cB^A B2 =a/f/|
ecA BAF|AFE EFA|B/c/dc B^AB|cAG A2:|
|:B|cee d2 f|cee ecA|Ac/d/e f/g/af|ecA B^AB|
c2 e dff|c2 e ecA|B/c/dc B^AB|cAG A2:|

